images/vehicles/car-sideways-left.svg

<?xml version="1.0" standalone="no"?><!DOCTYPE svg PUBLIC "-//W3C//DTD SVG 1.1//EN" "http://www.w3.org/Graphics/SVG/1.1/DTD/svg11.dtd"><svg width="336px" height="144px" version="1.1" xmlns="http://www.w3.org/2000/svg" xmlns:xlink="http://www.w3.org/1999/xlink" xml:space="preserve" style="fill-rule:evenodd;clip-rule:evenodd;stroke-linejoin:round;stroke-miterlimit:1.41421;"><g><g id="car-sideways-left" transform="matrix(1,0,0,1,-414.647,-468)"><path d="M443.59,587.352l10.835,-27.003l34.915,0l11.413,26.336" style="fill:#5c5f60;fill-rule:nonzero;"/><path d="M635.09,587.352l10.835,-27.003l34.915,0l11.413,26.336" style="fill:#5c5f60;fill-rule:nonzero;"/><path d="M443.59,588.852l10.835,-27.003l34.915,0l11.413,26.336" style="fill:#5c5f60;fill-rule:nonzero;"/><path d="M635.09,588.852l10.835,-27.003l34.915,0l11.413,26.336" style="fill:#5c5f60;fill-rule:nonzero;"/><path d="M429.562,592.98l-9.375,-51.38l75.511,-12.25l65.332,-37.585l157.27,0l26.637,42.585l-9.375,58.577l-42.652,0.008l-11.223,-25.772l-34.625,0l-10.541,25.855l-134.5,-0.001l-11.25,-25.667l-34.834,-0.25l-10.668,25.834l-15.707,0.046Z" style="fill:#e4e2dc;fill-rule:nonzero;"/><path d="M447.086,588.84l-17.48,3.557l0.125,0.593l15.774,0.009" style="fill:#f3f2ec;fill-rule:nonzero;"/><path d="M735.703,592.922l-42.656,0.01l-11.172,-25.744l-34.832,-0.062l-8.418,25.817l-136.877,0.03l-11.08,-25.64l-34.667,-0.248l-10.751,26.251l-15.583,-0.083l-9.167,-51.753l75.625,-12.375l35.836,-0.125l206.117,49.313l-2.375,14.609Z" style="fill:#f3f2ec;fill-rule:nonzero;"/><path d="M745.074,534.24l-2.234,14.391l-21.934,0.013l-5.426,-14.529l29.594,0.125Z" style="fill:#ad2125;fill-rule:nonzero;"/><path d="M453.684,545.985l-1.083,14.458l-28.823,0.014l-2.625,-14.511l32.531,0.039Z" style="fill:#f6f1e1;fill-rule:nonzero;"/><path d="M745.106,534.178l-0.62,4.026l-27.505,-0.042l-1.516,-4.062l29.641,0.078Z" style="fill:#fec;fill-rule:nonzero;"/><path d="M506.101,529.102l56.751,-33.503l114.142,0l19.346,32.837l-190.239,0.666Z" style="fill:#313156;fill-rule:nonzero;"/><path d="M720.838,495.602l-17.094,-0.002l36.764,31.375l-19.67,-31.373Z" style="fill:#313156;fill-rule:nonzero;"/><path d="M604.548,493.224l3.778,1.172l-7.58,44.669l-4.006,-0.834l7.808,-45.007Z" style="fill:#e4e2dc;fill-rule:nonzero;"/><path d="M531.59,524.725l0.396,4.292l5.021,-0.021l-0.501,-4.977l-4.916,0.706Z" style="fill:#c0bdba;fill-rule:nonzero;"/><path d="M531.59,524.725l-0.75,-7.875l14.75,-2.75l1.875,10.75l-15.875,-0.125Z" style="fill:#e4e2dc;fill-rule:nonzero;"/><path d="M487.008,591.643c0,7.801 -6.324,14.125 -14.125,14.125c-7.801,0 -14.125,-6.324 -14.125,-14.125c0,-7.801 6.324,-14.125 14.125,-14.125c7.801,0 14.125,6.324 14.125,14.125" style="fill:#e3e1db;fill-rule:nonzero;"/><path d="M473.425,604.212c-7.021,0 -12.712,-5.691 -12.712,-12.711c0,-7.02 5.691,-12.712 12.712,-12.712c7.021,0 12.712,5.692 12.712,12.712c0,7.02 -5.691,12.711 -12.712,12.711M473.425,571c-11.322,0 -20.5,9.179 -20.5,20.5c0,11.321 9.178,20.5 20.5,20.5c11.322,0 20.5,-9.179 20.5,-20.5c0,-11.321 -9.178,-20.5 -20.5,-20.5" style="fill:#2a2b2a;fill-rule:nonzero;"/><path d="M678.673,591.643c0,7.801 -6.324,14.125 -14.125,14.125c-7.801,0 -14.125,-6.324 -14.125,-14.125c0,-7.801 6.324,-14.125 14.125,-14.125c7.801,0 14.125,6.324 14.125,14.125" style="fill:#e3e1db;fill-rule:nonzero;"/><path d="M665.09,604.212c-7.021,0 -12.712,-5.691 -12.712,-12.711c0,-7.02 5.691,-12.712 12.712,-12.712c7.021,0 12.712,5.692 12.712,12.712c0,7.02 -5.691,12.711 -12.712,12.711M665.09,571c-11.322,0 -20.5,9.179 -20.5,20.5c0,11.321 9.178,20.5 20.5,20.5c11.322,0 20.5,-9.179 20.5,-20.5c0,-11.321 -9.178,-20.5 -20.5,-20.5" style="fill:#2a2b2a;fill-rule:nonzero;"/></g></g></svg>

<?xml version="1.0" encoding="UTF-8" standalone="no"?>
<!DOCTYPE svg PUBLIC "-//W3C//DTD SVG 1.1//EN" "http://www.w3.org/Graphics/SVG/1.1/DTD/svg11.dtd">
<svg width="100%" height="100%" viewBox="0 0 420 180" version="1.1" xmlns="http://www.w3.org/2000/svg" xmlns:xlink="http://www.w3.org/1999/xlink" xml:space="preserve" xmlns:serif="http://www.serif.com/" style="fill-rule:evenodd;clip-rule:evenodd;stroke-linejoin:round;stroke-miterlimit:2;">
    <g id="car-sideways-left" transform="matrix(1.27,0,0,1.27,-529.961,-597.24)">
        <path d="M443.59,587.353L454.425,560.349L489.34,560.349L500.753,586.685" style="fill:rgb(92,95,96);fill-rule:nonzero;"/>
        <path d="M635.09,587.353L645.925,560.349L680.84,560.349L692.253,586.685" style="fill:rgb(92,95,96);fill-rule:nonzero;"/>
        <path d="M443.59,588.852L454.425,561.849L489.34,561.849L500.753,588.185" style="fill:rgb(92,95,96);fill-rule:nonzero;"/>
        <path d="M635.09,588.852L645.925,561.849L680.84,561.849L692.253,588.185" style="fill:rgb(92,95,96);fill-rule:nonzero;"/>
        <path d="M429.563,592.98L420.188,541.6L495.698,529.35L561.031,491.765L718.3,491.765L744.938,534.35L735.563,592.927L692.911,592.935L681.688,567.163L647.063,567.163L636.522,593.018L502.022,593.017L490.772,567.35L455.938,567.1L445.27,592.934L429.563,592.98Z" style="fill:rgb(228,226,220);fill-rule:nonzero;"/>
        <path d="M447.086,588.84L429.606,592.397L429.731,592.99L445.505,592.999" style="fill:rgb(243,242,236);fill-rule:nonzero;"/>
        <path d="M735.703,592.922L693.047,592.932L681.875,567.188L647.043,567.126L638.625,592.943L501.748,592.973L490.668,567.333L456.001,567.085L445.25,593.336L429.667,593.253L420.5,541.5L496.125,529.125L531.961,529L738.078,578.313L735.703,592.922Z" style="fill:rgb(243,242,236);fill-rule:nonzero;"/>
        <path d="M745.074,534.24L742.84,548.631L720.906,548.644L715.48,534.115L745.074,534.24Z" style="fill:rgb(173,33,37);fill-rule:nonzero;"/>
        <path d="M453.684,545.985L452.601,560.443L423.778,560.457L421.153,545.946L453.684,545.985Z" style="fill:rgb(246,241,225);fill-rule:nonzero;"/>
        <path d="M745.106,534.178L744.486,538.204L716.981,538.162L715.465,534.1L745.106,534.178Z" style="fill:rgb(255,238,204);fill-rule:nonzero;"/>
        <path d="M506.101,529.103L562.852,495.599L676.994,495.599L696.34,528.436L506.101,529.103Z" style="fill:rgb(49,49,86);fill-rule:nonzero;"/>
        <path d="M720.838,495.602L703.744,495.6L740.508,526.975L720.838,495.602Z" style="fill:rgb(49,49,86);fill-rule:nonzero;"/>
        <path d="M604.548,493.224L608.326,494.396L600.746,539.065L596.74,538.231L604.548,493.224Z" style="fill:rgb(228,226,220);fill-rule:nonzero;"/>
        <path d="M531.59,524.725L531.986,529.017L537.007,528.996L536.506,524.019L531.59,524.725Z" style="fill:rgb(192,189,186);fill-rule:nonzero;"/>
        <path d="M531.59,524.725L530.84,516.85L545.59,514.1L547.465,524.85L531.59,524.725Z" style="fill:rgb(228,226,220);fill-rule:nonzero;"/>
        <path d="M487.008,591.643C487.008,599.444 480.684,605.768 472.883,605.768C465.082,605.768 458.758,599.444 458.758,591.643C458.758,583.842 465.082,577.518 472.883,577.518C480.684,577.518 487.008,583.842 487.008,591.643" style="fill:rgb(227,225,219);fill-rule:nonzero;"/>
        <path d="M473.425,604.212C466.404,604.212 460.713,598.521 460.713,591.501C460.713,584.481 466.404,578.789 473.425,578.789C480.446,578.789 486.137,584.481 486.137,591.501C486.137,598.521 480.446,604.212 473.425,604.212M473.425,571C462.103,571 452.925,580.179 452.925,591.5C452.925,602.821 462.103,612 473.425,612C484.747,612 493.925,602.821 493.925,591.5C493.925,580.179 484.747,571 473.425,571" style="fill:rgb(42,43,42);fill-rule:nonzero;"/>
        <path d="M678.673,591.643C678.673,599.444 672.349,605.768 664.548,605.768C656.747,605.768 650.423,599.444 650.423,591.643C650.423,583.842 656.747,577.518 664.548,577.518C672.349,577.518 678.673,583.842 678.673,591.643" style="fill:rgb(227,225,219);fill-rule:nonzero;"/>
        <path d="M665.09,604.212C658.069,604.212 652.378,598.521 652.378,591.501C652.378,584.481 658.069,578.789 665.09,578.789C672.111,578.789 677.802,584.481 677.802,591.501C677.802,598.521 672.111,604.212 665.09,604.212M665.09,571C653.768,571 644.59,580.179 644.59,591.5C644.59,602.821 653.768,612 665.09,612C676.412,612 685.59,602.821 685.59,591.5C685.59,580.179 676.412,571 665.09,571" style="fill:rgb(42,43,42);fill-rule:nonzero;"/>
    </g>
</svg>
